X:1
T:Title
L:1/8
Q:1/4=100
M:2/4
K:C
V:1 treble nm="Grand Piano"
V:1
 z C EF | G2 FE | G4- | GA AG | GF FE | F4 | z D DE | F3 D | E2 F2 | G4- | GG GF | E2 D2 | C4 | %13
 z G AB | c2 BA | c4- | cc cB | BA AG | G4 | z G AB | c2 BA | c4- | cc cB | BA AG | G4 | z G AB | %26
 G4- | GA Bc | A4- | AA Bc | B2 AG | c4- | c4 | z c BA | GF ED | C4- | C4 |] %37

